images/dropdown.svg

<svg height="5" viewBox="0 0 9 5" width="9" xmlns="http://www.w3.org/2000/svg"><path d="m191.508883 27.5 3.308059-3.4025742c.244077-.2510513.244077-.658086 0-.9091373-.244078-.2510513-.639806-.2510513-.883884 0l-3.75 3.8571429c-.244077.2510513-.244077.6580859 0 .9091372l3.75 3.8571429c.244078.2510513.639806.2510513.883884 0 .244077-.2510513.244077-.658086 0-.9091373z" fill="#888" transform="matrix(0 -1 1 0 -23 195)"/></svg>

<?xml version="1.0" encoding="UTF-8"?>
<svg width="9px" height="5px" viewBox="0 0 9 5" version="1.1" xmlns="http://www.w3.org/2000/svg" xmlns:xlink="http://www.w3.org/1999/xlink">
    <!-- Generator: Sketch 48.2 (47327) - http://www.bohemiancoding.com/sketch -->
    <title>Shape Copy</title>
    <desc>Created with Sketch.</desc>
    <defs></defs>
    <g id="Desktop-HD-Copy-25" stroke="none" stroke-width="1" fill="none" fill-rule="evenodd" transform="translate(-960.000000, -2837.000000)">
        <g id="Group-12" transform="translate(772.000000, 2812.000000)" fill="#888888" fill-rule="nonzero">
            <path d="M191.508883,27.5 L194.816942,24.0974258 C195.061019,23.8463745 195.061019,23.4393398 194.816942,23.1882885 C194.572864,22.9372372 194.177136,22.9372372 193.933058,23.1882885 L190.183058,27.0454314 C189.938981,27.2964827 189.938981,27.7035173 190.183058,27.9545686 L193.933058,31.8117115 C194.177136,32.0627628 194.572864,32.0627628 194.816942,31.8117115 C195.061019,31.5606602 195.061019,31.1536255 194.816942,30.9025742 L191.508883,27.5 Z" id="Shape-Copy" transform="translate(192.500000, 27.500000) rotate(-90.000000) translate(-192.500000, -27.500000) "></path>
        </g>
    </g>
</svg>
